symbols/web/newspaper/materialsymbolsoutlined/newspaper_wght500_24px.svg

<svg xmlns="http://www.w3.org/2000/svg" height="24" width="24"><path d="M4.15 21.225q-.95 0-1.625-.663-.675-.662-.675-1.612V2.725L3.575 4.4 5.25 2.725 6.95 4.4l1.7-1.675L10.325 4.4 12 2.725 13.675 4.4l1.675-1.675 1.7 1.675 1.7-1.675L20.425 4.4l1.725-1.675V18.95q0 .95-.675 1.612-.675.663-1.625.663Zm0-2.275h6.75v-6H4.15v6Zm8.95 0h6.75v-1.9H13.1Zm0-4.1h6.75v-1.9H13.1Zm-8.95-4.075h15.7V7.95H4.15Z"/></svg>

<svg xmlns="http://www.w3.org/2000/svg" height="24" width="24"><path d="M4.15 21.225Q3.2 21.225 2.525 20.562Q1.85 19.9 1.85 18.95V2.725L3.575 4.4L5.25 2.725L6.95 4.4L8.65 2.725L10.325 4.4L12 2.725L13.675 4.4L15.35 2.725L17.05 4.4L18.75 2.725L20.425 4.4L22.15 2.725V18.95Q22.15 19.9 21.475 20.562Q20.8 21.225 19.85 21.225ZM4.15 18.95H10.9V12.95H4.15V18.95Q4.15 18.95 4.15 18.95Q4.15 18.95 4.15 18.95ZM13.1 18.95H19.85Q19.85 18.95 19.85 18.95Q19.85 18.95 19.85 18.95V17.05H13.1ZM13.1 14.85H19.85V12.95H13.1ZM4.15 10.775H19.85V7.95H4.15Z"/></svg>
